X: 7466
T: Cnoc Na gClarac
R: slide
M: 12/8
K: Amixolydian
|:e3 efe d2 f e2 d|c2 A ABA a3 a2 g|
e3 efe d2 f e2 d|c2 A BAG A3 A2 A:|
|:e2 a a2 g e2 d Bcd|e2 a a2 g efe d2 f|
e2 a a2 g e3 efe|d3 def g2 f g2 e:|

